X: 4381
T: Cheap Meal.
T: Or Good Harvest.
%R: reel
B: Niel Gow & Sons "Complete Repository" v.4 p.38 #1
Z: 2021 John Chambers <jc:trillian.mit.edu>
M: C|
L: 1/8
K: D
% - - - - - - - - - -
V: 1 staves=2
B |\
.A(FTE>D) d(FTE>D) | EB- TB>A BEEB | A(FTE>D) ~d>efe | dB AF ADDB | .A(FTE>D) d(FTE>D) |
EB-TB>A BEEB | .A(FTE>D) ~d>efe | dB AF ADD |[| f | ~abaf defd | eb-b>a beef |
~a>baf ~d>efe | dB AF ADDf | ~a>baf defd | eb-b>a beef | abfa dg Tf>e | dB AF ADD |]
% - - - - - - - - - -
V: 2 clef=bass middle=d
z | D2d2 d2d2 | [g2e2][f2^d2] e2Ez | d2c2 B2F2 | G2A2 D2D2 | D2d2 d2d2 |
[g2e2][f2^d2] e2Ez | d2c2 B2F2 | G2A2 D2D |[| z | d2d'2 d'2f'2 | [g'2e'2][f'2^d'2] [g'2e'2][g'2e'2] | d'2c'2 b2a2 |
g2a2 d2Dz | d2d'2 d'2f'2 | [g'2e'2][f'2^d'2] [g'2e'2][g'2e'2] | d'3c' b2a2 | g2a2 d2d |]


